X:1
T:Balance the Straw
M:6/8
C:
S:Bacon
N:
A:Field Town
O:English
R:Jig
%P:A/2(AB$^2$)$^4$
P:A.(AB2)4
K:DMix
I:speed 300
P:A
|: A   | d2 f fef  | g2 e efg  | afa  geg  | f2 d d2 :|\
P:B
fg     | a2 a a2 d | g2 f f2 e | a2 a a2 d | f2 e e2 \
A      | d2 f fef  | g2 e efg  | afa  geg  | f2 d d2 ||
